Papirus/16x16/panel/deluge-panel.svg

<svg xmlns="http://www.w3.org/2000/svg" width="16" height="16" version="1.1">
 <defs>
  <style id="current-color-scheme" type="text/css">
   .ColorScheme-Text { color:#dfdfdf; } .ColorScheme-Highlight { color:#4285f4; }
  </style>
 </defs>
 <path style="fill:currentColor;fill-rule:evenodd" class="ColorScheme-Text" d="m 8.0133921,1.000001 c -0.118024,4.005e-4 -0.241165,0.115886 -0.415053,0.3503418 L 3.9833117,6.880616 C 2.7395974,8.782493 2.7529671,10.8369 3.5910462,12.388672 4.4291253,13.940444 6.0790475,15 8.0019981,15 c 1.922889,0 3.5703879,-1.059547 4.4076979,-2.611328 0.837309,-1.55178 0.850177,-3.606835 -0.392267,-5.509765 L 8.4007751,1.3400889 C 8.2446201,1.1148136 8.1314161,0.99960062 8.0133921,1.000001 Z m -0.0098,1.4987792 3.0518579,4.9099118 c 0.742506,1.209447 0.885747,2.653603 -0.349946,3.68361 -0.147369,0.131669 -0.333319,0.256282 -0.537128,0.369139 -0.4637719,0.215743 -1.2526656,0.443007 -1.7990516,0.509277 -0.221092,0.03976 -0.455436,0.0647 -0.714542,0.05298 -0.02811,-0.0032 -0.05636,-0.0049 -0.08464,-0.0052 h -0.005 c -0.827459,-10e-7 -1.5104668,-1.270666 -1.5104668,-2.2240915 5e-4,-0.846621 0.854412,-1.531723 1.5809465,-1.656006 0.138484,-0.02874 0.283104,-0.05622 0.434585,-0.09057 0.610955,-0.211013 0.875025,-1.11116 0.296233,-1.543213 C 7.9555021,6.1982505 7.4764831,6.0290855 6.9959533,6.0055935 6.405812,5.9767535 5.9263094,6.1742965 5.429,6.5422145 Z"/>
</svg>

<svg xmlns="http://www.w3.org/2000/svg" width="16" height="16" version="1.1">
 <defs>
  <style id="current-color-scheme" type="text/css">
   .ColorScheme-Text { color:#dfdfdf; } .ColorScheme-Highlight { color:#4285f4; }
  </style>
 </defs>
 <path style="fill:currentColor" class="ColorScheme-Text" d="M 8.0134,1 C 7.8954,1.0004 7.7722,1.1159 7.5983,1.3503 L 3.9833,6.8806 C 2.7396,8.7825 2.753,10.837 3.591,12.389 4.4291,13.94 6.079,15 8.002,15 9.9249,15 11.572,13.94 12.41,12.389 13.247,10.837 13.26,8.7818 12.017,6.8789 L 8.4008,1.3401 C 8.2446,1.1148 8.1314,0.9996 8.0134,1 Z M 8.0036,2.4988 11.055,7.4087 C 11.798,8.6181 11.941,10.062 10.706,11.092 10.558,11.224 10.372,11.349 10.168,11.461 9.7046,11.677 8.9157,11.904 8.3693,11.971 8.1482,12.01 7.9139,12.035 7.6548,12.024 7.6267,12.02 7.5984,12.019 7.5701,12.018 H 7.5651 C 6.7377,12.018 6.0547,10.748 6.0547,9.7944 6.0552,8.9478 6.9091,8.2627 7.6356,8.1384 7.7741,8.1097 7.9187,8.0822 8.0702,8.0478 8.6812,7.8368 8.9452,6.9367 8.3664,6.5046 7.9555,6.1983 7.4765,6.0291 6.996,6.0056 6.4058,5.9768 5.9263,6.1743 5.429,6.5422 Z"/>
</svg>
